packages/core/src/svgs/tokens/mono/MTA.svg

<svg width="24" height="24" viewBox="0 0 24 24" fill="none" xmlns="http://www.w3.org/2000/svg">
<path d="M5.12498 3.25H2V15.7499H5.74997V8.6481V8.52374C5.74373 7.62061 5.73124 5.75 7.93748 5.75C9.97754 5.75 10.125 7.60874 10.125 8.56873V15.7499H13.8749V9.73183V9.66621C13.8749 7.83499 13.8743 5.75 16.0624 5.75C17.9775 5.75 18.2499 7.31874 18.2499 8.6481V15.7499H21.9968V8.93874V8.73561C22 7.67311 22.0031 6.28687 21.3731 5.26936C21.0993 4.7775 20.1618 3.25 17.625 3.25C16.3312 3.25 14.5293 3.44562 13.4899 5.44061C13.2457 4.84999 12.3855 3.25 9.49994 3.25C7.09872 3.25 6.22373 4.46436 5.80561 5.04563C5.78623 5.07249 5.7681 5.09812 5.74997 5.12187L5.12498 3.25ZM22 17.6249H2V20.7499H22V17.6249Z" fill="white"/>
</svg>

<svg xmlns="http://www.w3.org/2000/svg" width="24" height="24" fill="none" viewBox="0 0 24 24">
    <path fill="#fff" d="M5.125 3.25H2v12.5h3.75V8.524C5.744 7.62 5.731 5.75 7.937 5.75c2.04 0 2.188 1.859 2.188 2.819v7.18h3.75V9.667c0-1.831 0-3.916 2.187-3.916 1.915 0 2.188 1.569 2.188 2.898v7.102h3.747V8.736c.003-1.063.006-2.45-.624-3.467-.274-.492-1.211-2.019-3.748-2.019-1.294 0-3.096.196-4.135 2.19-.244-.59-1.104-2.19-3.99-2.19-2.401 0-3.276 1.214-3.694 1.796l-.056.076zM22 17.625H2v3.125h20z"/>
</svg>
